symbols/web/create_new_folder/materialsymbolssharp/create_new_folder_wght700fill1_20px.svg

<svg xmlns="http://www.w3.org/2000/svg" height="20" width="20"><path d="M11.479 13.812h2.063v-1.958h1.937V9.792h-1.937V7.854h-2.084v1.938H9.521v2.083h1.958ZM.958 17.375V2.312h6.98L10 4.375h9.042v13Z"/></svg>

<svg xmlns="http://www.w3.org/2000/svg" height="20" width="20"><path d="M11.479 13.812H13.542V11.854H15.479V9.792H13.542V7.854H11.458V9.792H9.521V11.875H11.479ZM0.958 17.375V2.312H7.938L10 4.375H19.042V17.375Z"/></svg>
